X:034 
T:Crimlin Cat (reel), The
S:L.Donnelly < W.Jones
F:file ID: cre.4/034crim_c
B:CRE4.097 (Cat na Crimlinne - no repeats)
Q:180
L:1/8
M:4/4
R:reel
K:G
"A dorian"
G2|A3G ABcd|efed cAAB|c2 cA B2 BG|AcBA GEED|
A3GA2 (3Bcd|efed cA A2|g2 fg e2dc|BedB A2 :|
Bd|eaag a2 ga|b3a geef|g2 ef gfef|g2 af gfed|
c2 cA B2BG|AcBA GEED|g2 fg e2dc|BedB A2 :|


%%%

